front/img/Group 5183.svg

<svg width="59" height="58" viewBox="0 0 59 58" fill="none" xmlns="http://www.w3.org/2000/svg">
<circle cx="29.8516" cy="29.0039" r="29" fill="white"/>
<path fill-rule="evenodd" clip-rule="evenodd" d="M16.3454 28.3193C23.529 25.1996 28.3112 23.1266 30.7126 22.1209C37.5472 19.268 38.984 18.7754 39.9076 18.7549C40.1128 18.7549 40.5643 18.7959 40.8722 19.0422C41.1185 19.2475 41.1801 19.5143 41.2211 19.7195C41.2622 19.9248 41.3032 20.3558 41.2622 20.6842C40.8927 24.5839 39.2918 34.0457 38.4708 38.3969C38.1219 40.2441 37.4446 40.8598 36.7878 40.9214C35.3511 41.0446 34.2633 39.9773 32.8882 39.0742C30.7126 37.658 29.5016 36.7754 27.3876 35.3798C24.9452 33.7789 26.5255 32.8963 27.9212 31.4596C28.2907 31.0901 34.5917 25.3433 34.7148 24.8302C34.7354 24.7686 34.7354 24.5223 34.5917 24.3991C34.448 24.276 34.2428 24.317 34.0786 24.3581C33.8528 24.3991 30.4047 26.6979 23.6932 31.2338C22.708 31.9111 21.8254 32.2395 21.025 32.219C20.1424 32.1985 18.4594 31.7264 17.1869 31.3159C15.6475 30.8233 14.4161 30.5565 14.5187 29.6945C14.5802 29.2429 15.196 28.7914 16.3454 28.3193Z" fill="#1B1B1B"/>
</svg>

<svg xmlns="http://www.w3.org/2000/svg" width="59" height="58" fill="none"><circle cx="29.852" cy="29.004" r="29" fill="#fff"/><path fill="#1B1B1B" fill-rule="evenodd" d="M16.345 28.32c7.184-3.12 11.966-5.193 14.368-6.2 6.834-2.852 8.271-3.345 9.195-3.365.205 0 .656.04.964.287.246.205.308.472.35.677.04.206.081.637.04.965-.37 3.9-1.97 13.362-2.791 17.713-.35 1.847-1.026 2.463-1.683 2.524-1.437.124-2.525-.944-3.9-1.847-2.175-1.416-3.386-2.299-5.5-3.694-2.443-1.601-.863-2.484.533-3.92.37-.37 6.67-6.117 6.794-6.63.02-.061.02-.308-.123-.43-.144-.124-.35-.083-.513-.042-.226.041-3.674 2.34-10.386 6.876-.985.677-1.868 1.005-2.668.985-.883-.02-2.566-.493-3.838-.903-1.54-.493-2.77-.76-2.668-1.621.061-.452.677-.904 1.826-1.376Z" clip-rule="evenodd"/></svg>
